project/addons/terrain/icons/icon_height_mul.svg

<?xml version="1.0" encoding="UTF-8" standalone="no"?>
<svg
   width="16"
   height="16"
   version="1.1"
   viewBox="0 0 16 16"
   id="svg2"
   inkscape:version="1.2.2 (732a01da63, 2022-12-09)"
   sodipodi:docname="icon_height_mul.svg"
   xmlns:inkscape="http://www.inkscape.org/namespaces/inkscape"
   xmlns:sodipodi="http://sodipodi.sourceforge.net/DTD/sodipodi-0.dtd"
   xmlns="http://www.w3.org/2000/svg"
   xmlns:svg="http://www.w3.org/2000/svg"
   xmlns:rdf="http://www.w3.org/1999/02/22-rdf-syntax-ns#"
   xmlns:cc="http://creativecommons.org/ns#"
   xmlns:dc="http://purl.org/dc/elements/1.1/">
  <metadata
     id="metadata12">
    <rdf:RDF>
      <cc:Work
         rdf:about="">
        <dc:format>image/svg+xml</dc:format>
        <dc:type
           rdf:resource="http://purl.org/dc/dcmitype/StillImage" />
      </cc:Work>
    </rdf:RDF>
  </metadata>
  <defs
     id="defs10">
    <inkscape:path-effect
       effect="spiro"
       id="path-effect6469"
       is_visible="true"
       lpeversion="1" />
    <inkscape:path-effect
       effect="spiro"
       id="path-effect6463"
       is_visible="true"
       lpeversion="1" />
    <inkscape:path-effect
       effect="spiro"
       id="path-effect4977"
       is_visible="true"
       lpeversion="1" />
    <inkscape:path-effect
       effect="spiro"
       id="path-effect4245"
       is_visible="true"
       lpeversion="1" />
    <inkscape:path-effect
       effect="spiro"
       id="path-effect3156"
       is_visible="true"
       lpeversion="1" />
    <inkscape:path-effect
       effect="spiro"
       id="path-effect2324"
       is_visible="true"
       lpeversion="1" />
    <inkscape:path-effect
       effect="powerstroke"
       id="path-effect2285"
       is_visible="true"
       lpeversion="1"
       offset_points="0.76255776,0.35156248"
       not_jump="true"
       sort_points="true"
       interpolator_type="CentripetalCatmullRom"
       interpolator_beta="0.75"
       start_linecap_type="round"
       linejoin_type="spiro"
       miter_limit="4"
       scale_width="1"
       end_linecap_type="round" />
    <inkscape:path-effect
       effect="simplify"
       id="path-effect2283"
       is_visible="true"
       lpeversion="1"
       steps="1"
       threshold="0.0028332064"
       smooth_angles="0"
       helper_size="0"
       simplify_individual_paths="false"
       simplify_just_coalesce="false"
       step="1" />
  </defs>
  <sodipodi:namedview
     pagecolor="#ffffff"
     bordercolor="#666666"
     borderopacity="1"
     objecttolerance="10"
     gridtolerance="10"
     guidetolerance="10"
     inkscape:pageopacity="0"
     inkscape:pageshadow="2"
     inkscape:window-width="1920"
     inkscape:window-height="1009"
     id="namedview8"
     showgrid="false"
     inkscape:zoom="32.000001"
     inkscape:cx="4.5156248"
     inkscape:cy="11.21875"
     inkscape:window-x="-8"
     inkscape:window-y="-8"
     inkscape:window-maximized="1"
     inkscape:current-layer="svg2"
     inkscape:object-paths="false"
     inkscape:snap-smooth-nodes="false"
     inkscape:object-nodes="true"
     inkscape:snap-grids="false"
     inkscape:snap-to-guides="true"
     inkscape:pagecheckerboard="0"
     inkscape:showpageshadow="0"
     inkscape:deskcolor="#d1d1d1"
     showguides="false">
    <inkscape:grid
       type="xygrid"
       id="grid4140" />
  </sodipodi:namedview>
  <path
     id="path14846"
     style="color:#000000;fill:#fc7f7f;-inkscape-stroke:none"
     d="M 7.8828125,6.7421407 C 6.4537214,7.026585 6.5003653,8.6856926 5.9753845,9.8418776 5.3897614,11.50945 1.7077594,12.982451 0,13.574219 V 16 c 4,6.52e-4 12,-7e-4 16,0 V 13.46289 C 14.17538,12.840397 10.673664,11.646193 10.064772,9.8720906 9.5792315,8.8125193 9.3010871,6.7262955 7.8828125,6.7421407 Z"
     sodipodi:nodetypes="cccccccc" />
  <path
     id="path16308"
     style="color:#000000;fill:#fc7f7f;-inkscape-stroke:none"
     d="M 8.0644531,1.4000818 C 7.1562999,1.3804988 6.3509737,1.7535742 5.7324219,2.2750818 5.1241641,2.7879106 4.7117999,3.4194266 4.3984375,4.0348473 3.7745427,5.2601287 3.4745191,6.4134577 2.9082031,7.1735192 2.4245771,7.8226005 1.6836217,8.3075965 0.89453125,8.4879723 L 0,8.6461755 V 10.800472 C 1.8431487,11.257175 5.0332141,9.0089169 5.5058594,6.4762536 6.0296619,5.3223446 6.454335,3.6928142 7.8828125,3.4078942 h 0.048828 L 8.03125,3.4020348 C 9.3610628,3.5688546 9.8406968,5.0476145 10.314453,6.1032067 11.130361,9.1931096 14.300039,10.896923 16,10.693051 V 8.5680505 L 15.203125,8.403988 C 14.316958,8.2209719 13.479245,7.6747808 12.955078,6.9371911 12.430086,6.1984364 12.13517,5.1068897 11.53125,3.9489098 11.228053,3.3675473 10.833218,2.7703814 10.259766,2.2809411 9.6776034,1.7840675 8.9231395,1.418598 8.0644531,1.4000818 Z"
     sodipodi:nodetypes="sssscccccccccccssss" />
</svg>

<?xml version="1.0" encoding="utf-8"?>
<!-- Generator: Adobe Illustrator 16.0.3, SVG Export Plug-In . SVG Version: 6.00 Build 0)  -->
<!DOCTYPE svg PUBLIC "-//W3C//DTD SVG 1.1//EN" "http://www.w3.org/Graphics/SVG/1.1/DTD/svg11.dtd">
<svg version="1.1"
	 id="svg2" xmlns:dc="http://purl.org/dc/elements/1.1/" xmlns:cc="http://creativecommons.org/ns#" xmlns:rdf="http://www.w3.org/1999/02/22-rdf-syntax-ns#" xmlns:svg="http://www.w3.org/2000/svg" xmlns:sodipodi="http://sodipodi.sourceforge.net/DTD/sodipodi-0.dtd" xmlns:inkscape="http://www.inkscape.org/namespaces/inkscape" sodipodi:docname="icon_height_mul.svg" inkscape:version="1.2.2 (732a01da63, 2022-12-09)"
	 xmlns="http://www.w3.org/2000/svg" xmlns:xlink="http://www.w3.org/1999/xlink" x="0px" y="0px" width="16px" height="16px"
	 viewBox="0 0 16 16" enable-background="new 0 0 16 16" xml:space="preserve">
<defs>
	
	<inkscape:path-effect  lpeversion="1" effect="spiro" is_visible="true" id="path-effect6469"></inkscape:path-effect>
	<inkscape:path-effect  lpeversion="1" effect="spiro" is_visible="true" id="path-effect6463"></inkscape:path-effect>
	<inkscape:path-effect  lpeversion="1" effect="spiro" is_visible="true" id="path-effect4977"></inkscape:path-effect>
	<inkscape:path-effect  lpeversion="1" effect="spiro" is_visible="true" id="path-effect4245"></inkscape:path-effect>
	<inkscape:path-effect  lpeversion="1" effect="spiro" is_visible="true" id="path-effect3156"></inkscape:path-effect>
	<inkscape:path-effect  lpeversion="1" effect="spiro" is_visible="true" id="path-effect2324"></inkscape:path-effect>
	
		<inkscape:path-effect  lpeversion="1" effect="powerstroke" is_visible="true" scale_width="1" miter_limit="4" linejoin_type="spiro" sort_points="true" not_jump="true" offset_points="0.76255776,0.35156248" id="path-effect2285" start_linecap_type="round" end_linecap_type="round" interpolator_type="CentripetalCatmullRom" interpolator_beta="0.75">
		</inkscape:path-effect>
	
		<inkscape:path-effect  lpeversion="1" effect="simplify" is_visible="true" step="1" helper_size="0" smooth_angles="0" threshold="0.0028332064" steps="1" id="path-effect2283" simplify_individual_paths="false" simplify_just_coalesce="false">
		</inkscape:path-effect>
</defs>
<sodipodi:namedview  inkscape:cy="11.21875" inkscape:cx="4.5156248" inkscape:zoom="32.000001" showgrid="false" guidetolerance="10" gridtolerance="10" objecttolerance="10" borderopacity="1" pagecolor="#ffffff" bordercolor="#666666" id="namedview8" inkscape:current-layer="svg2" inkscape:window-maximized="1" inkscape:window-y="-8" inkscape:window-x="-8" inkscape:object-nodes="true" inkscape:snap-grids="false" inkscape:window-height="1009" inkscape:window-width="1920" inkscape:pageshadow="2" inkscape:pageopacity="0" inkscape:object-paths="false" inkscape:snap-smooth-nodes="false" inkscape:snap-to-guides="true" inkscape:pagecheckerboard="0" inkscape:showpageshadow="0" inkscape:deskcolor="#d1d1d1" showguides="false">
	<inkscape:grid  type="xygrid" id="grid4140"></inkscape:grid>
</sodipodi:namedview>
<path id="path16308" sodipodi:nodetypes="sssscccccccccccssss" fill="#FC7F7F" d="M8.064,1.4C7.156,1.38,6.351,1.753,5.732,2.275
	c-0.608,0.513-1.021,1.145-1.334,1.76C3.774,5.26,3.475,6.414,2.908,7.173C2.425,7.823,1.684,8.308,0.895,8.488L0,8.646v2.154
	c1.843,0.457,5.033-1.792,5.506-4.325C6.03,5.322,6.454,3.693,7.883,3.408h0.049l0.1-0.006c1.33,0.167,1.81,1.646,2.283,2.701
	c0.816,3.09,3.985,4.793,5.686,4.59V8.568l-0.797-0.165c-0.887-0.183-1.725-0.729-2.248-1.467c-0.525-0.739-0.82-1.83-1.424-2.988
	c-0.303-0.581-0.698-1.178-1.271-1.668C9.678,1.784,8.924,1.418,8.064,1.4z"/>
<path fill="#FC7F7F" d="M10.064,9.872c-0.485-1.06-0.764-3.146-2.182-3.13C6.454,7.026,6.5,8.686,5.976,9.842
	C5.39,11.51,1.708,12.982,0,13.574V16c4,0,12,0,16,0v-2.537C14.176,12.84,10.674,11.646,10.064,9.872z"/>
</svg>
